markup/public/images/subject.svg

<svg width="22" height="22" viewBox="0 0 22 22" fill="none" xmlns="http://www.w3.org/2000/svg">
<g clip-path="url(#clip0)">
<path d="M18.4742 4H14.9443C14.1254 4 12.9676 4.48081 12.3746 5.07475L6.44435 11.0141C5.85133 11.6081 5.85133 12.5697 6.44435 13.1636L10.8497 17.5758C11.4427 18.1697 12.4028 18.1697 12.9958 17.5758L18.9261 11.6364C19.5191 11.0424 19.9992 9.88283 19.9992 9.06263V5.49899C19.9992 4.67879 19.3214 4 18.4742 4ZM16.4693 9.03434C15.6221 9.03434 14.9726 8.35556 14.9726 7.53535C14.9726 6.68687 15.6503 6.03636 16.4693 6.03636C17.3164 6.03636 17.9659 6.71515 17.9659 7.53535C17.9659 8.35556 17.2882 9.03434 16.4693 9.03434ZM4.24169 12.4283L9.63538 17.8303C9.0706 18.1414 8.33638 18.0566 7.85631 17.5758L3.45099 13.1354C2.85797 12.5414 2.85797 11.5798 3.45099 10.9859L9.38123 5.04646C9.94601 4.48081 11.1038 4 11.9228 4L4.24169 11.7212C4.04402 11.9192 4.04402 12.2303 4.24169 12.4283Z" fill="#67717D"/>
</g>
<defs>
<clipPath id="clip0">
<rect width="17" height="14" fill="white" transform="translate(3 4)"/>
</clipPath>
</defs>
</svg>

<svg width="22" height="22" viewBox="0 0 22 22" fill="none" xmlns="http://www.w3.org/2000/svg"><g clip-path="url(#a)"><path d="M18.474 4h-3.53c-.819 0-1.976.48-2.57 1.075l-5.93 5.94a1.52 1.52 0 0 0 0 2.149l4.406 4.412a1.515 1.515 0 0 0 2.146 0l5.93-5.94C19.52 11.042 20 9.883 20 9.063V5.499C20 4.679 19.321 4 18.474 4zM16.47 9.034a1.49 1.49 0 0 1-1.496-1.499 1.49 1.49 0 0 1 1.496-1.499 1.49 1.49 0 0 1 1.497 1.5c0 .82-.678 1.498-1.497 1.498zM4.242 12.428l5.393 5.402a1.502 1.502 0 0 1-1.779-.254l-4.405-4.44a1.52 1.52 0 0 1 0-2.15l5.93-5.94C9.946 4.481 11.104 4 11.923 4l-7.681 7.721a.496.496 0 0 0 0 .707z" fill="#67717D"/></g><defs><clipPath id="a"><path fill="#fff" transform="translate(3 4)" d="M0 0h17v14H0z"/></clipPath></defs></svg>
